@extra/phlat-icons/symbolic-24/natron.svg

<?xml version="1.0" encoding="UTF-8" standalone="no"?>
<svg
   xmlns:dc="http://purl.org/dc/elements/1.1/"
   xmlns:cc="http://creativecommons.org/ns#"
   xmlns:rdf="http://www.w3.org/1999/02/22-rdf-syntax-ns#"
   xmlns:svg="http://www.w3.org/2000/svg"
   xmlns="http://www.w3.org/2000/svg"
   xmlns:sodipodi="http://sodipodi.sourceforge.net/DTD/sodipodi-0.dtd"
   xmlns:inkscape="http://www.inkscape.org/namespaces/inkscape"
   viewBox="-4 -4 24 24"
   version="1.1"
   id="svg4"
   sodipodi:docname="natron.svg"
   inkscape:version="0.92.1 r15371">
  <metadata
     id="metadata10">
    <rdf:RDF>
      <cc:Work
         rdf:about="">
        <dc:format>image/svg+xml</dc:format>
        <dc:type
           rdf:resource="http://purl.org/dc/dcmitype/StillImage" />
        <dc:title></dc:title>
      </cc:Work>
    </rdf:RDF>
  </metadata>
  <defs
     id="defs8" />
  <sodipodi:namedview
     pagecolor="#ffffff"
     bordercolor="#666666"
     borderopacity="1"
     objecttolerance="10"
     gridtolerance="10"
     guidetolerance="10"
     inkscape:pageopacity="0"
     inkscape:pageshadow="2"
     inkscape:window-width="2560"
     inkscape:window-height="1034"
     id="namedview6"
     showgrid="true"
     inkscape:zoom="55.748034"
     inkscape:cx="2.0987287"
     inkscape:cy="9.2918074"
     inkscape:window-x="0"
     inkscape:window-y="22"
     inkscape:window-maximized="1"
     inkscape:current-layer="svg4">
    <inkscape:grid
       type="xygrid"
       id="grid12" />
  </sodipodi:namedview>
  <path
     d="M 7.6239074,0.00168364 C 6.8301441,0.01680295 6.0590598,0.0772801 5.4127097,0.18689507 4.7663595,0.29273015 4.2409639,0.46282227 4.0141744,0.60267587 3.7722655,0.7538689 3.3262462,1.2074479 2.8726671,1.8159997 A 19.345145,19.345145 0 0 0 1.5119301,3.9856194 C 1.0848098,4.7793828 0.6954878,5.5996048 0.4233405,6.3215513 A 5.8209307,5.8209307 0 0 0 0,7.9997937 c 0,0.5405151 0.5669738,2.0411053 1.3569573,3.4661003 0.517836,0.933617 1.0885896,1.795417 1.6442238,2.532484 0.018899,-0.642571 0.015119,-1.421215 0.052918,-2.056226 0.034018,-0.585873 0.071817,-1.322939 0.1133942,-1.73116 A 7.9678715,7.9678715 0 0 1 3.277108,9.4890454 C 3.296007,9.4247824 3.284658,9.36809 3.4056221,9.2206774 A 0.69926766,0.69926766 0 0 1 3.9650366,8.9863281 c 0.3779825,0.026458 0.4838177,0.2154499 0.6047721,0.366643 0.128514,0.1511931 0.2381289,0.3288446 0.3590833,0.5405154 0.2456887,0.4157805 0.5140562,0.9562955 0.7937633,1.5346095 0.5594142,1.160406 1.1793055,2.698795 1.602646,3.341365 0.3175052,0.480038 0.517836,0.854241 0.6614693,1.031893 0.1474132,0.181432 0.1474132,0.200331 0.3968816,0.19655 A 15.875266,15.875266 0 0 0 10.59485,15.812693 c 0.642571,-0.10584 1.167966,-0.272147 1.390975,-0.408221 0.245689,-0.151193 0.691709,-0.604772 1.141508,-1.220883 0.4498,-0.608552 0.929837,-1.375857 1.360737,-2.169621 0.4309,-0.793762 0.816442,-1.613985 1.088589,-2.3321523 A 5.707536,5.707536 0 0 0 16,7.9997937 C 16,7.4630586 15.433026,5.9586881 14.650602,4.5412537 A 22.089298,22.089298 0 0 0 13.002599,2.0012112 c -0.02267,0.6425703 -0.01512,1.6253248 -0.05291,2.2603354 A 37.541224,37.541224 0 0 1 12.83629,5.788596 7.9754311,7.9754311 0 0 1 12.73045,6.5143224 c -0.0189,0.064257 -0.0075,0.1171746 -0.132293,0.2721474 a 0.69926766,0.69926766 0 0 1 -0.555635,0.2267896 c -0.377981,-0.022679 -0.483817,-0.21545 -0.608551,-0.366643 A 4.0292936,4.0292936 0 0 1 11.074888,6.1098812 23.427357,23.427357 0 0 1 10.281124,4.5714924 C 9.72549,3.411086 9.101819,1.8726971 8.6784786,1.2301268 8.3609733,0.75008901 8.1644224,0.37966615 8.0170093,0.1982345 7.8733759,0.02058273 7.8658162,0.00168364 7.6276872,0.00168364 Z"
     id="path2"
     inkscape:connector-curvature="0"
     style="fill:#f1f2f2;stroke-width:3.77982521;paint-order:markers stroke fill" />
</svg>

<svg xmlns="http://www.w3.org/2000/svg" viewBox="-4 -4 24 24">
    <path d="M7.624.002C6.83.017 6.059.077 5.413.187 4.766.293 4.24.463 4.014.603c-.242.15-.688.604-1.141 1.213a19.345 19.345 0 0 0-1.361 2.17A20.093 20.093 0 0 0 .423 6.322 5.82 5.82 0 0 0 0 8c0 .54.567 2.04 1.357 3.466a21.903 21.903 0 0 0 1.644 2.532c.02-.642.015-1.42.053-2.056.034-.586.072-1.323.113-1.731a7.968 7.968 0 0 1 .11-.722c.019-.064.008-.12.129-.268a.7.7 0 0 1 .559-.235c.378.027.484.216.605.367.128.151.238.329.359.54.246.416.514.957.794 1.535.56 1.16 1.179 2.699 1.602 3.341.318.48.518.855.662 1.032.147.182.147.2.397.197a15.875 15.875 0 0 0 2.21-.185c.643-.106 1.169-.272 1.392-.409.246-.15.692-.604 1.141-1.22.45-.609.93-1.376 1.361-2.17.431-.794.817-1.614 1.089-2.332A5.708 5.708 0 0 0 16 8c0-.537-.567-2.041-1.35-3.459a22.09 22.09 0 0 0-1.647-2.54c-.023.643-.016 1.626-.053 2.26a37.541 37.541 0 0 1-.114 1.528 7.975 7.975 0 0 1-.106.725c-.018.065-.007.117-.132.272a.7.7 0 0 1-.555.227c-.378-.022-.484-.215-.609-.366a4.03 4.03 0 0 1-.36-.537 23.427 23.427 0 0 1-.793-1.539c-.556-1.16-1.18-2.698-1.603-3.34C8.361.75 8.164.38 8.017.197c-.144-.177-.151-.196-.39-.196z" fill="#f1f2f2" stroke-width="3.78" paint-order="markers stroke fill"/>
</svg>
